X: 33977
T: Redwoods In Winter
R: jig
M: 6/8
K: Eminor
e|:edB ABG|E2E EFG|A2B cBA|fga gfe|
deB ABG|E2B EFG|A2B cBA|1 GAF E2e:|2 GAF EFD||
|:G2D GBd|cde ffa|g2d Bcd|cAG FGF|
E2B BAG|FGF E2G|A2B cBA|1 GAF EFD:|2 GAF E B/c/d||

